components/icon/svg/24/navigation_refresh.svg

<?xml version="1.0" encoding="UTF-8"?>
<svg width="24px" height="24px" viewBox="0 0 24 24" version="1.1" xmlns="http://www.w3.org/2000/svg" xmlns:xlink="http://www.w3.org/1999/xlink">
    <!-- Generator: Sketch 64 (93537) - https://sketch.com -->
    <title>ic-db_navigation_refresh_24</title>
    <desc>Created with Sketch.</desc>
    <g id="Symbols:Icon" stroke="none" stroke-width="1" fill="none" fill-rule="evenodd">
        <g id="24dp-Icon/Navigation/Refresh" fill="#282D37">
            <path d="M7.375,18 C7.125,18 6.9375,17.9062 6.75,17.75 C4.9375,16.2188 4,14 4,11.6562 C4,8.3125 6.25,5.4062 9.5,4.6562 L8.2188,3.9062 C7.9062,3.6875 7.7188,3.3438 7.7188,3.0312 C7.7188,2.4688 8.1562,2 8.7188,2 C8.9062,2 9.0938,2.0625 9.2188,2.1562 L12.6875,4.2188 C13,4.4062 13.1875,4.7812 13.1875,5.0938 C13.1875,5.25 13.125,5.4375 13.0312,5.5938 L10.9688,9.0312 C10.7812,9.3438 10.4375,9.5312 10.0938,9.5312 C9.5312,9.5312 9.125,9.0625 9.125,8.5312 C9.125,8.3438 9.1562,8.1562 9.25,8 L10.125,6.5625 C7.6875,7.0312 6,9.1562 6,11.6562 C6,13.4062 6.6875,15.0625 8.0312,16.2188 C8.25,16.4062 8.3438,16.7188 8.3438,17 C8.3438,17.625 7.9062,18 7.375,18 Z M16.625,6 C16.875,6 17.0625,6.0938 17.25,6.25 C19.0625,7.7812 20,10 20,12.3438 C20,15.6875 17.75,18.5938 14.5,19.3438 L15.7812,20.0938 C16.125,20.2812 16.2812,20.6562 16.2812,20.9688 C16.2812,21.5312 15.8438,22 15.2812,22 C15.0938,22 14.9062,21.9375 14.7812,21.8438 L11.3125,19.7812 C11,19.5938 10.8125,19.2188 10.8125,18.9062 C10.8125,18.75 10.875,18.5625 10.9688,18.4062 L13.0312,14.9688 C13.2188,14.6562 13.5625,14.4688 13.9062,14.4688 C14.4688,14.4688 14.875,14.9375 14.875,15.4688 C14.875,15.6562 14.8438,15.8438 14.75,16 L13.875,17.4375 C16.3125,16.9688 18,14.8438 18,12.3438 C18,10.5938 17.3125,8.9375 15.9688,7.7812 C15.75,7.5938 15.6562,7.2812 15.6562,7 C15.6562,6.375 16.0938,6 16.625,6 Z" id="🎨-Color"></path>
        </g>
    </g>
</svg>

<svg width="24" height="24" xmlns="http://www.w3.org/2000/svg"><path d="M7.375 18c-.25 0-.438-.094-.625-.25C4.937 16.219 4 14 4 11.656c0-3.344 2.25-6.25 5.5-7l-1.281-.75c-.313-.219-.5-.562-.5-.875 0-.562.437-1.031 1-1.031.187 0 .375.063.5.156l3.469 2.063c.312.187.5.562.5.875 0 .156-.063.343-.157.5L10.97 9.03c-.188.313-.531.5-.875.5-.563 0-.969-.469-.969-1 0-.187.031-.375.125-.531l.875-1.438C7.687 7.032 6 9.156 6 11.657c0 1.75.688 3.406 2.031 4.563.219.187.313.5.313.781 0 .625-.438 1-.969 1zm9.25-12c.25 0 .438.094.625.25C19.063 7.781 20 10 20 12.344c0 3.344-2.25 6.25-5.5 7l1.281.75c.344.187.5.562.5.875 0 .562-.437 1.031-1 1.031a.865.865 0 01-.5-.156l-3.469-2.063a1.077 1.077 0 01-.5-.875c0-.156.063-.343.157-.5l2.062-3.437c.188-.313.531-.5.875-.5.563 0 .969.469.969 1 0 .187-.031.375-.125.531l-.875 1.438c2.438-.47 4.125-2.594 4.125-5.094 0-1.75-.688-3.406-2.031-4.563-.219-.187-.313-.5-.313-.781 0-.625.438-1 .969-1z" fill="#282D37" fill-rule="evenodd"/></svg>
